symbols/web/play_for_work/materialsymbolsoutlined/play_for_work_wght300_40px.svg

<svg xmlns="http://www.w3.org/2000/svg" height="40" width="40"><path d="M20 32.5q-3.792 0-6.479-2.583-2.688-2.584-2.688-6.334h2.084q0 2.875 2.104 4.855 2.104 1.979 4.979 1.979t4.979-1.979q2.104-1.98 2.104-4.855h2.084q0 3.75-2.688 6.334Q23.792 32.5 20 32.5Zm-.042-8.042-6.125-6.125 1.459-1.5 3.583 3.584V8.792H21v11.625l3.542-3.584 1.5 1.5Z"/></svg>

<svg xmlns="http://www.w3.org/2000/svg" height="40" width="40"><path d="M20 32.5Q16.208 32.5 13.521 29.917Q10.833 27.333 10.833 23.583H12.917Q12.917 26.458 15.021 28.438Q17.125 30.417 20 30.417Q22.875 30.417 24.979 28.438Q27.083 26.458 27.083 23.583H29.167Q29.167 27.333 26.479 29.917Q23.792 32.5 20 32.5ZM19.958 24.458 13.833 18.333 15.292 16.833 18.875 20.417V8.792H21V20.417L24.542 16.833L26.042 18.333Z"/></svg>
